src/assets/svg/icons/fa/nuevos/classic/thin/camera-retro classic thin.svg

<svg xmlns="http://www.w3.org/2000/svg" viewBox="0 0 512 512"><!--! Font Awesome Pro 6.4.0 by @fontawesome - https://fontawesome.com License - https://fontawesome.com/license (Commercial License) Copyright 2023 Fonticons, Inc. --><path d="M192 96H64c-26.5 0-48 21.5-48 48v88H146c18.5-42.4 60.8-72 110-72s91.5 29.6 110 72H496V96c0-26.5-21.5-48-48-48H277.3c-10.4 0-20.5 3.4-28.8 9.6L201.6 92.8c-2.8 2.1-6.1 3.2-9.6 3.2zM16 248V416c0 26.5 21.5 48 48 48H448c26.5 0 48-21.5 48-48V248H371.7c2.8 10.2 4.3 20.9 4.3 32c0 66.3-53.7 120-120 120s-120-53.7-120-120c0-11.1 1.5-21.8 4.3-32H16zM0 416V144c0-35.3 28.7-64 64-64H192l46.9-35.2C250 36.5 263.5 32 277.3 32H448c35.3 0 64 28.7 64 64V416c0 35.3-28.7 64-64 64H64c-35.3 0-64-28.7-64-64zM360 280a104 104 0 1 0 -208 0 104 104 0 1 0 208 0zM64 40c0-4.4 3.6-8 8-8h80c4.4 0 8 3.6 8 8s-3.6 8-8 8H72c-4.4 0-8-3.6-8-8z"/></svg>

<svg xmlns="http://www.w3.org/2000/svg" viewBox="0 0 512 512"><path d="M0 416V144C0 108.7 28.65 80 64 80H192L238.9 44.8C250 36.49 263.5 32 277.3 32H448C483.3 32 512 60.65 512 96V416C512 451.3 483.3 480 448 480H64C28.65 480 0 451.3 0 416zM64 96C37.49 96 16 117.5 16 144V232H145.1C164.5 189.6 206.8 160 256 160C305.2 160 347.5 189.6 366 232H496V96C496 69.49 474.5 48 448 48H277.3C266.9 48 256.8 51.37 248.5 57.6L201.6 92.8C198.8 94.88 195.5 96 192 96H64zM16 248V416C16 442.5 37.49 464 64 464H448C474.5 464 496 442.5 496 416V248H371.7C374.5 258.2 376 268.9 376 280C376 346.3 322.3 400 256 400C189.7 400 136 346.3 136 280C136 268.9 137.5 258.2 140.3 248H16zM256 176C198.6 176 152 222.6 152 280C152 337.4 198.6 384 256 384C313.4 384 360 337.4 360 280C360 222.6 313.4 176 256 176zM64 40C64 35.58 67.58 32 72 32H152C156.4 32 160 35.58 160 40C160 44.42 156.4 48 152 48H72C67.58 48 64 44.42 64 40z"/></svg>
